tools/download-figma-icons/icons/solid/full-service.svg

<svg width="24" height="24" viewBox="0 0 24 24" fill="none" xmlns="http://www.w3.org/2000/svg">
<path fill-rule="evenodd" clip-rule="evenodd" d="M9.75014 5.86517C9.75014 7.10941 10.7551 8.11515 12.0001 8.11515C13.2451 8.11515 14.2501 7.10941 14.2501 5.86517C14.2501 4.62768 13.2451 3.61519 12.0001 3.61519C10.7551 3.61519 9.75014 4.62768 9.75014 5.86517ZM16.6201 6.15768L17.73 6.81768C17.9025 6.92192 17.9625 7.14767 17.865 7.32692L16.1326 10.4101C16.0793 10.4926 15.9976 10.5601 15.9001 10.5901C15.8026 10.6119 15.6976 10.5976 15.6151 10.5444L14.4526 9.86189L14.1083 10.0651V11.4519C14.1083 11.6619 13.9426 11.8269 13.7333 11.8269H10.2669C10.0576 11.8269 9.89188 11.6619 9.89188 11.4519V10.0951L9.52513 9.87014L8.38514 10.5444C8.29589 10.5976 8.19015 10.6119 8.10015 10.5901C8.00265 10.5601 7.91265 10.4926 7.86765 10.4101L6.13517 7.32692C6.03017 7.14767 6.09767 6.92192 6.26942 6.81768L7.3944 6.15018V5.67769L6.26942 5.00944C6.09767 4.90519 6.03017 4.6802 6.13517 4.5002L7.86765 1.41698C7.91265 1.32698 8.00265 1.26698 8.10015 1.23698C8.19765 1.21523 8.29589 1.22948 8.38514 1.28273L9.44263 1.90522L9.89188 1.64198V0.37524C9.89188 0.164492 10.0576 0.000244138 10.2669 0.000244138H13.7333C13.9426 0.000244138 14.1083 0.164492 14.1083 0.37524V1.66448L14.5276 1.91947L15.6151 1.28273C15.6976 1.22948 15.8026 1.21523 15.9001 1.23698C15.9976 1.26698 16.0793 1.32698 16.1326 1.41698L17.865 4.5002C17.9625 4.6802 17.9025 4.90519 17.73 5.00944L16.6201 5.66194V6.15768ZM12.3374 23.917L22.8523 18.7945C23.8655 18.2995 24.2848 17.0771 23.7898 16.0646C23.2955 15.0528 22.0723 14.6246 21.0598 15.1203L19.0348 16.1096C19.0358 16.124 19.0369 16.1384 19.0379 16.1525C19.0444 16.242 19.0506 16.3264 19.0506 16.4171C19.0506 18.0745 17.7073 19.417 16.0506 19.417H9.10491C8.69241 19.417 8.35492 19.0795 8.35492 18.667C8.35492 18.2545 8.69241 17.917 9.10491 17.917H16.0506C16.8823 17.917 17.5506 17.2428 17.5506 16.4171C17.5506 15.7271 17.0848 15.1421 16.4473 14.9696C16.3723 14.9471 16.2823 14.9396 16.1998 14.9328H16.1706C16.1323 14.9171 16.0948 14.9171 16.0506 14.9171H11.4749C11.0174 14.0696 9.7799 12.5396 6.71243 12.5396H0.749992C0.337497 12.5396 0 12.8771 0 13.2896V19.7478C0 20.077 0.209998 20.3703 0.524995 20.467L11.7749 23.9627C11.7824 23.9695 11.7981 23.9695 11.8124 23.9695C11.8724 23.9927 11.9324 23.9995 11.9999 23.9995C12.1131 23.9995 12.2249 23.977 12.3299 23.9245L12.3374 23.917Z" fill="black"/>
</svg>

<svg xmlns="http://www.w3.org/2000/svg" width="24" height="24" fill="none" viewBox="0 0 24 24"><path fill="currentColor" fill-rule="evenodd" d="M9.75 5.865A2.247 2.247 0 0 0 12 8.115a2.247 2.247 0 0 0 2.25-2.25A2.25 2.25 0 0 0 12 3.615a2.25 2.25 0 0 0-2.25 2.25m6.87.293 1.11.66c.172.104.232.33.135.509l-1.732 3.083a.43.43 0 0 1-.233.18.38.38 0 0 1-.285-.046l-1.162-.682-.345.203v1.387c0 .21-.165.375-.375.375h-3.466a.37.37 0 0 1-.375-.375v-1.357l-.367-.225-1.14.674a.4.4 0 0 1-.285.046.4.4 0 0 1-.232-.18L6.135 7.327a.376.376 0 0 1 .134-.51l1.125-.667v-.472L6.27 5.009a.376.376 0 0 1-.134-.509l1.733-3.083a.38.38 0 0 1 .232-.18.38.38 0 0 1 .285.046l1.058.622.449-.263V.375c0-.21.166-.375.375-.375h3.466a.37.37 0 0 1 .375.375v1.29l.42.254 1.087-.636a.38.38 0 0 1 .285-.046.4.4 0 0 1 .233.18L17.865 4.5a.383.383 0 0 1-.135.51l-1.11.652zm-4.283 17.759 10.515-5.123a2.044 2.044 0 0 0-1.793-3.674l-2.024.99.003.043c.006.089.013.173.013.264a3 3 0 0 1-3 3H9.105a.75.75 0 0 1-.75-.75c0-.413.337-.75.75-.75h6.946a1.5 1.5 0 0 0 .396-2.947 1.3 1.3 0 0 0-.247-.037h-.03c-.038-.016-.075-.016-.12-.016h-4.575c-.458-.847-1.695-2.377-4.763-2.377H.75a.75.75 0 0 0-.75.75v6.458c0 .329.21.622.525.719l11.25 3.496c.007.006.023.006.037.006.06.024.12.03.188.03a.7.7 0 0 0 .33-.075z" clip-rule="evenodd"/></svg>
